X:349
T:Castlebar Races
O:Ireland
M:6/8
L:1/8
Q:1/4=120
K:G
V:1
g2 BB AB |GB AG AB |g2 BB AB |GB de2 f|
g2 BB AB |GB AG AB |gf ef dB |AB de2 f:| |:
g3 ba g|f3 af d|g3 ba g|f2 de2 f|
g3 ba g|f3 af d|g fe fd B|A Bd e3 :|
